communes/5621.svg

<?xml version="1.0" encoding="UTF-8" standalone="no"?>
<!-- Created with Inkscape (http://www.inkscape.org/) -->
<svg
   xmlns:dc="http://purl.org/dc/elements/1.1/"
   xmlns:cc="http://creativecommons.org/ns#"
   xmlns:rdf="http://www.w3.org/1999/02/22-rdf-syntax-ns#"
   xmlns:svg="http://www.w3.org/2000/svg"
   xmlns="http://www.w3.org/2000/svg"
   xmlns:xlink="http://www.w3.org/1999/xlink"
   xmlns:sodipodi="http://sodipodi.sourceforge.net/DTD/sodipodi-0.dtd"
   xmlns:inkscape="http://www.inkscape.org/namespaces/inkscape"
   width="500"
   height="627.35999"
   id="svg2"
   sodipodi:version="0.32"
   inkscape:version="0.46"
   version="1.0"
   sodipodi:docname="Wappen Aclens.svg"
   inkscape:output_extension="org.inkscape.output.svg.inkscape">
  <defs
     id="defs4">
    <inkscape:perspective
       sodipodi:type="inkscape:persp3d"
       inkscape:vp_x="0 : 526.18109 : 1"
       inkscape:vp_y="0 : 1000 : 0"
       inkscape:vp_z="744.09448 : 526.18109 : 1"
       inkscape:persp3d-origin="372.04724 : 350.78739 : 1"
       id="perspective10" />
    <inkscape:perspective
       sodipodi:type="inkscape:persp3d"
       inkscape:vp_x="0 : 420.94501 : 1"
       inkscape:vp_y="0 : 1000 : 0"
       inkscape:vp_z="595.27502 : 420.94501 : 1"
       inkscape:persp3d-origin="297.63751 : 280.63 : 1"
       id="perspective2505" />
    <radialGradient
       r="300"
       fy="579.93323"
       fx="858.04236"
       cy="579.93323"
       cx="858.04236"
       gradientTransform="matrix(1.21503,0,0,1.26667,-839.192,-490.489)"
       gradientUnits="userSpaceOnUse"
       id="radialGradient3236"
       xlink:href="#linearGradient2893"
       inkscape:collect="always" />
    <linearGradient
       id="linearGradient2955">
      <stop
         id="stop2965"
         offset="0"
         style="stop-color: white; stop-opacity: 0;" />
      <stop
         id="stop2959"
         offset="1"
         style="stop-color: black; stop-opacity: 0.645833;" />
    </linearGradient>
    <linearGradient
       id="linearGradient2893">
      <stop
         id="stop2895"
         offset="0"
         style="stop-color: rgb(255, 255, 255); stop-opacity: 0.313726;" />
      <stop
         style="stop-color: rgb(255, 255, 255); stop-opacity: 0.25098;"
         offset="0.19"
         id="stop2897" />
      <stop
         id="stop2901"
         offset="0.60000002"
         style="stop-color: rgb(107, 107, 107); stop-opacity: 0.12549;" />
      <stop
         id="stop2899"
         offset="1"
         style="stop-color: rgb(0, 0, 0); stop-opacity: 0.12549;" />
    </linearGradient>
    <inkscape:perspective
       id="perspective28"
       inkscape:persp3d-origin="301.5 : 254.33333 : 1"
       inkscape:vp_z="603 : 381.5 : 1"
       inkscape:vp_y="0 : 1000 : 0"
       inkscape:vp_x="0 : 381.5 : 1"
       sodipodi:type="inkscape:persp3d" />
    <radialGradient
       inkscape:collect="always"
       xlink:href="#linearGradient2893"
       id="radialGradient2560"
       gradientUnits="userSpaceOnUse"
       gradientTransform="matrix(1.21503,0,0,1.26667,-839.192,-490.489)"
       cx="858.04236"
       cy="579.93323"
       fx="858.04236"
       fy="579.93323"
       r="300" />
    <radialGradient
       inkscape:collect="always"
       xlink:href="#linearGradient2893"
       id="radialGradient2563"
       gradientUnits="userSpaceOnUse"
       gradientTransform="matrix(1.21503,0,0,1.26667,-1517.8364,-776.76967)"
       cx="858.04236"
       cy="579.93323"
       fx="858.04236"
       fy="579.93323"
       r="300" />
  </defs>
  <sodipodi:namedview
     id="base"
     pagecolor="#ffffff"
     bordercolor="#666666"
     borderopacity="1.0"
     inkscape:pageopacity="0.0"
     inkscape:pageshadow="2"
     inkscape:zoom="0.35"
     inkscape:cx="8.5714286"
     inkscape:cy="881.95415"
     inkscape:document-units="px"
     inkscape:current-layer="layer1"
     showgrid="false"
     inkscape:window-width="1280"
     inkscape:window-height="750"
     inkscape:window-x="-8"
     inkscape:window-y="-8" />
  <metadata
     id="metadata7">
    <rdf:RDF>
      <cc:Work
         rdf:about="">
        <dc:format>image/svg+xml</dc:format>
        <dc:type
           rdf:resource="http://purl.org/dc/dcmitype/StillImage" />
      </cc:Work>
    </rdf:RDF>
  </metadata>
  <g
     inkscape:label="Ebene 1"
     inkscape:groupmode="layer"
     id="layer1"
     transform="translate(678.64433,130.64082)">
    <g
       id="g2579"
       transform="matrix(0.7960159,0,0,0.7960159,-128.43262,107.24307)">
      <path
         d="M -677.14036,-284.77767 L -677.14036,174.09533 C -677.14036,340.40633 -542.82636,475.22633 -377.14036,475.22633 C -211.45236,475.22633 -77.14036,340.40633 -77.14036,174.09533 L -77.14036,-284.77767 L -677.14036,-284.77767 z"
         id="path2537"
         style="fill:#2b5df2" />
      <path
         d="M -377.14436,475.21933 C -211.45636,475.21933 -77.14436,340.39933 -77.14436,174.08833 L -77.14436,-284.77767 L -677.14436,-284.77767 L -677.14436,174.09533 C -677.14036,340.39733 -542.82736,475.21933 -377.14436,475.21933 z M -602.14036,-209.77767 L -152.14036,-209.77767 C -152.14036,-104.80367 -152.14036,174.09533 -152.14036,174.09533 C -152.14036,298.78333 -253.07436,400.22633 -377.14036,400.22633 C -501.20336,400.22633 -602.14036,298.78733 -602.14036,174.09533 C -602.14036,174.09233 -602.14036,-104.80367 -602.14036,-209.77767 z"
         id="path1919"
         style="fill:#ffffff" />
      <path
         d="M -504.01736,-209.77767 L -504.01736,-284.77667 L -677.14036,-284.77767 L -602.14036,-209.77767 L -504.01736,-209.77767 z M -250.26836,-284.77667 L -377.14336,-284.77667 L -377.14336,-209.77767 L -250.26836,-209.77767 L -250.26836,-284.77667 z M -602.14036,-111.77467 L -677.14036,-111.77467 L -677.14036,15.10033 L -602.14036,15.10033 L -602.14036,-111.77467 z M -77.14436,-284.77767 L -152.14136,-209.77767 L -152.14136,-111.77467 L -77.14436,-111.77467 L -77.14436,-284.77767 z M -152.14136,15.10033 L -152.14136,141.97533 L -77.14136,141.97533 L -77.14136,15.10033 L -152.14136,15.10033 z M -602.14036,141.97333 L -677.14236,141.97333 L -677.14236,174.09233 C -677.14136,218.84233 -667.40236,261.30733 -649.95636,299.48533 L -584.55336,261.72333 C -595.87436,234.76033 -602.13836,205.14933 -602.13836,174.09233 L -602.14036,141.97333 L -602.14036,141.97333 z M -541.23836,426.19433 C -494.08236,457.18233 -437.71636,475.21733 -377.14436,475.21733 L -377.14336,475.21733 L -377.14136,400.22333 C -423.99536,400.22333 -467.54536,385.74833 -503.61136,361.02233 L -541.23836,426.19433 z M -250.67236,361.02433 L -213.04736,426.19433 C -165.92436,395.22733 -128.01236,351.31733 -104.32736,299.48533 L -169.72536,261.72533 C -186.69436,302.13533 -215.02636,336.58933 -250.67236,361.02433 z"
         id="path2583"
         style="fill:#e20909" />
      <path
         d="M -677.14036,-284.77767 L -602.14036,-209.77767 M -504.01736,-209.77767 L -504.01736,-284.77667 M -250.26836,-209.77767 L -250.26836,-284.77667 M -377.14336,-284.77667 L -377.14336,-209.77767 M -677.14036,15.10033 L -602.14036,15.10033 M -602.14036,-111.77467 L -677.14036,-111.77467 M -152.14136,-111.77467 L -77.14436,-111.77467 M -77.14436,-284.77767 L -152.14136,-209.77767 M -77.14136,15.10033 L -152.14136,15.10033 M -152.14136,141.97533 L -77.14136,141.97533 M -602.13936,141.97333 L -602.13936,141.97333 L -677.14236,141.97333 M -649.95636,299.48533 L -584.55336,261.72333 M -503.61136,361.02233 L -541.23836,426.19433 M -377.14436,475.21733 L -377.14436,475.21733 L -377.14136,400.22333 M -104.32836,299.48533 L -169.72636,261.72533 M -250.67236,361.02433 L -213.04736,426.19433"
         id="path2583_1_"
         style="fill:none;stroke:#000000;stroke-width:3" />
      <path
         d="M -602.14036,-209.77767 L -152.14036,-209.77767 C -152.14036,-104.80367 -152.14036,174.09533 -152.14036,174.09533 C -152.14036,298.78333 -253.07436,400.22633 -377.14036,400.22633 C -501.20336,400.22633 -602.14036,298.78733 -602.14036,174.09533 C -602.14036,174.09233 -602.14036,-104.80367 -602.14036,-209.77767 z"
         id="path1919_2_"
         style="fill:none;stroke:#000000;stroke-width:3" />
      <path
         style="fill:#fcef3c;stroke:#000000;stroke-width:3;stroke-linecap:round;stroke-linejoin:round"
         id="path2183"
         d="M -377.14336,248.09633 C -280.20536,248.09633 -222.74236,220.30533 -222.74236,220.30533 C -207.07136,213.64133 -208.81136,175.00233 -222.74236,169.00633 C -222.74236,169.00633 -204.16936,141.02633 -223.90236,119.70733 C -223.90236,119.70733 -209.39136,90.39433 -232.02936,69.74033 C -232.02936,69.74033 -225.06336,42.42633 -245.38036,25.77133 C -245.38036,25.77133 -237.83436,-6.20767 -263.37436,-21.53167 C -263.37436,-21.53167 -263.37436,-56.17067 -290.07636,-63.50067 C -290.07636,-63.50067 -294.13936,-94.81367 -330.70836,-97.47967 C -330.70836,-97.47967 -343.47836,-124.31767 -377.14536,-124.31767 C -410.81136,-124.31767 -423.58136,-97.47967 -423.58136,-97.47967 C -460.15136,-94.81467 -464.21336,-63.50067 -464.21336,-63.50067 C -490.91436,-56.17067 -490.91436,-21.53167 -490.91436,-21.53167 C -516.45536,-6.20767 -508.90936,25.77133 -508.90936,25.77133 C -529.22636,42.42533 -522.26036,69.74033 -522.26036,69.74033 C -544.89836,90.39433 -530.38636,119.70733 -530.38636,119.70733 C -550.12236,141.02033 -531.54736,169.00633 -531.54736,169.00633 C -545.47836,175.00233 -547.22036,213.64133 -531.54736,220.30533 C -531.54436,220.30533 -474.07936,248.09633 -377.14336,248.09633 z" />
      <path
         id="path2185"
         d="M -377.14336,248.09633 C -369.74836,248.09633 -362.58936,247.93233 -355.66436,247.63133 L -355.66436,230.77233 C -355.66436,217.16133 -365.28136,206.12433 -377.14336,206.12433 C -389.00436,206.12433 -398.62036,217.16133 -398.62036,230.77233 L -398.62036,247.63133 C -391.69536,247.93233 -384.53536,248.09633 -377.14336,248.09633 z" />
      <path
         style="fill:none;stroke:#000000;stroke-width:3;stroke-linecap:round;stroke-linejoin:round"
         id="path2187"
         d="M -222.74236,169.00633 C -222.74236,169.00633 -280.20536,198.60833 -377.14336,198.60833 C -474.08036,198.60833 -531.54436,169.00633 -531.54436,169.00633" />
      <path
         style="fill:none;stroke:#000000;stroke-width:3;stroke-linecap:round;stroke-linejoin:round"
         id="path2189"
         d="M -223.90236,119.70833 C -223.90236,119.70833 -291.23636,151.49733 -377.14336,151.49733 C -463.05036,151.49733 -530.38236,119.70833 -530.38236,119.70833" />
      <path
         style="fill:none;stroke:#000000;stroke-width:3;stroke-linecap:round;stroke-linejoin:round"
         id="path2191"
         d="M -232.02936,69.74133 C -232.02936,69.74133 -299.36236,98.20033 -377.14336,98.20033 C -454.92336,98.20033 -522.25736,69.74133 -522.25736,69.74133" />
      <path
         style="fill:none;stroke:#000000;stroke-width:3;stroke-linecap:round;stroke-linejoin:round"
         id="path2193"
         d="M -245.37836,25.77233 C -245.37836,25.77233 -310.97136,50.89833 -377.14336,50.89833 C -443.31436,50.89833 -508.90536,25.77233 -508.90536,25.77233" />
      <path
         style="fill:none;stroke:#000000;stroke-width:3;stroke-linecap:round;stroke-linejoin:round"
         id="path2195"
         d="M -263.37236,-21.52867 C -263.37236,-21.52867 -313.87136,2.93033 -377.14336,2.93033 C -440.41336,2.93033 -490.91236,-21.52867 -490.91236,-21.52867" />
      <path
         style="fill:none;stroke:#000000;stroke-width:3;stroke-linecap:round;stroke-linejoin:round"
         id="path2197"
         d="M -290.07636,-63.49767 C -290.07636,-63.49767 -331.86836,-43.70067 -377.14336,-43.70067 C -422.41736,-43.70067 -464.21136,-63.49767 -464.21136,-63.49767" />
      <path
         style="fill:none;stroke:#000000;stroke-width:3;stroke-linecap:round;stroke-linejoin:round"
         id="path2199"
         d="M -330.70636,-97.47567 C -330.70636,-97.47567 -342.31336,-87.19367 -377.14336,-87.19367 C -411.97036,-87.19367 -423.57936,-97.47567 -423.57936,-97.47567" />
      <path
         style="fill:none;fill-opacity:1;stroke:#000000;stroke-width:3;stroke-miterlimit:4;stroke-dasharray:none;stroke-opacity:1"
         d="M -677.14436,-284.78067 L -677.14436,174.08727 C -677.14436,340.39787 -542.82982,475.21933 -377.14443,475.21933 C -211.45896,475.21933 -77.14436,340.39787 -77.14436,174.08727 L -77.14436,-284.78067 L -677.14436,-284.78067 z"
         id="path3239" />
    </g>
  </g>
</svg>

<?xml version="1.0" encoding="UTF-8"?>
<svg version="1.0" viewBox="0 0 500 627.36" xmlns="http://www.w3.org/2000/svg" xmlns:cc="http://creativecommons.org/ns#" xmlns:dc="http://purl.org/dc/elements/1.1/" xmlns:rdf="http://www.w3.org/1999/02/22-rdf-syntax-ns#" xmlns:xlink="http://www.w3.org/1999/xlink">
<metadata>
<rdf:RDF>
<cc:Work rdf:about="">
<dc:format>image/svg+xml</dc:format>
<dc:type rdf:resource="http://purl.org/dc/dcmitype/StillImage"/>
</cc:Work>
</rdf:RDF>
</metadata>
<g transform="translate(678.64 130.64)">
<g transform="matrix(.79602 0 0 .79602 -128.43 107.24)">
<path d="m-677.14-284.78v458.87c0 166.31 134.31 301.13 300 301.13 165.69 0 300-134.82 300-301.13v-458.87h-600z" fill="#2b5df2"/>
<path d="m-377.14 475.22c165.69 0 300-134.82 300-301.13v-458.87h-600v458.87c4e-3 166.3 134.32 301.12 300 301.12zm-225-685h450v383.87c0 124.69-100.93 226.13-225 226.13-124.06 0-225-101.44-225-226.13v-383.87z" fill="#fff"/>
<path d="m-504.02-209.78v-74.999l-173.12-1e-3 75 75h98.123zm253.75-74.999h-126.88v74.999h126.88v-74.999zm-351.87 173h-75v126.88h75v-126.88zm525-173-74.997 75v98.003h74.997v-173zm-74.997 299.88v126.88h75v-126.88h-75zm-450 126.87h-75.002v32.119c1e-3 44.75 9.74 87.215 27.186 125.39l65.403-37.762c-11.321-26.963-17.585-56.574-17.585-87.631l-2e-3 -32.119zm60.902 284.22c47.156 30.988 103.52 49.023 164.09 49.023h1e-3l2e-3 -74.994c-46.854 0-90.404-14.475-126.47-39.201l-37.627 65.172zm290.57-65.17 37.625 65.17c47.123-30.967 85.035-74.877 108.72-126.71l-65.398-37.76c-16.969 40.41-45.301 74.864-80.947 99.299z" fill="#e20909"/>
<path d="m-677.14-284.78 75 75m98.123 0v-74.999m253.75 74.999v-74.999m-126.88 0v74.999m-300 224.88h75m0-126.88h-75m525 0h74.997m0-173-74.997 75m75 224.88h-75m0 126.88h75m-525-2e-3h-75.003m27.186 157.51 65.403-37.762m80.942 99.299-37.627 65.172m164.09 49.023 3e-3 -74.994m272.81-100.74-65.398-37.76m-80.946 99.299 37.625 65.17" fill="none" stroke="#000" stroke-width="3"/>
<path d="m-602.14-209.78h450v383.87c0 124.69-100.93 226.13-225 226.13-124.06 0-225-101.44-225-226.13v-383.87z" fill="none" stroke="#000" stroke-width="3"/>
<path d="m-377.14 248.1c96.938 0 154.4-27.791 154.4-27.791 15.671-6.664 13.931-45.303 0-51.299 0 0 18.573-27.98-1.16-49.299 0 0 14.511-29.313-8.127-49.967 0 0 6.966-27.314-13.351-43.969 0 0 7.546-31.979-17.994-47.303 0 0 0-34.639-26.702-41.969 0 0-4.063-31.313-40.632-33.979 0 0-12.77-26.838-46.437-26.838-33.666 0-46.436 26.838-46.436 26.838-36.57 2.665-40.632 33.979-40.632 33.979-26.701 7.33-26.701 41.969-26.701 41.969-25.541 15.324-17.995 47.303-17.995 47.303-20.317 16.654-13.351 43.969-13.351 43.969-22.638 20.654-8.126 49.967-8.126 49.967-19.736 21.313-1.161 49.299-1.161 49.299-13.931 5.996-15.673 44.635 0 51.299 3e-3 0 57.468 27.791 154.4 27.791z" fill="#fcef3c" stroke="#000" stroke-linecap="round" stroke-linejoin="round" stroke-width="3"/>
<path d="m-377.14 248.1c7.395 0 14.554-0.164 21.479-0.465v-16.859c0-13.611-9.617-24.648-21.479-24.648-11.861 0-21.477 11.037-21.477 24.648v16.859c6.925 0.301 14.085 0.465 21.477 0.465z"/>
<path d="m-222.74 169.01s-57.463 29.602-154.4 29.602c-96.937 0-154.4-29.602-154.4-29.602" fill="none" stroke="#000" stroke-linecap="round" stroke-linejoin="round" stroke-width="3"/>
<path d="m-223.9 119.71s-67.334 31.789-153.24 31.789-153.24-31.789-153.24-31.789" fill="none" stroke="#000" stroke-linecap="round" stroke-linejoin="round" stroke-width="3"/>
<path d="m-232.03 69.741s-67.333 28.459-145.11 28.459c-77.78 0-145.11-28.459-145.11-28.459" fill="none" stroke="#000" stroke-linecap="round" stroke-linejoin="round" stroke-width="3"/>
<path d="m-245.38 25.772s-65.593 25.126-131.76 25.126c-66.171 0-131.76-25.126-131.76-25.126" fill="none" stroke="#000" stroke-linecap="round" stroke-linejoin="round" stroke-width="3"/>
<path d="m-263.37-21.529s-50.499 24.459-113.77 24.459c-63.27 0-113.77-24.459-113.77-24.459" fill="none" stroke="#000" stroke-linecap="round" stroke-linejoin="round" stroke-width="3"/>
<path d="m-290.08-63.498s-41.792 19.797-87.067 19.797c-45.274 0-87.068-19.797-87.068-19.797" fill="none" stroke="#000" stroke-linecap="round" stroke-linejoin="round" stroke-width="3"/>
<path d="m-330.71-97.476s-11.607 10.282-46.437 10.282c-34.827 0-46.436-10.282-46.436-10.282" fill="none" stroke="#000" stroke-linecap="round" stroke-linejoin="round" stroke-width="3"/>
<path d="m-677.14-284.78v458.87c0 166.31 134.31 301.13 300 301.13 165.69 0 300-134.82 300-301.13v-458.87h-600z" fill="none" stroke="#000" stroke-width="3"/>
</g>
</g>
</svg>
